storage/app/icons/phosphoricons/duotone/hourglass-duotone.svg

<svg xmlns="http://www.w3.org/2000/svg" fill="currentColor" viewBox="0 0 256 256"><path d="M188.82 82 128 128 67.2 82.4A8 8 0 0 1 64 76V40a8 8 0 0 1 8-8h112a8 8 0 0 1 8 8v35.64a8 8 0 0 1-3.18 6.36M64 180v36a8 8 0 0 0 8 8h112a8 8 0 0 0 8-8v-35.64a8 8 0 0 0-3.18-6.38L128 128l-60.8 45.6A8 8 0 0 0 64 180" opacity=".2"/><path d="M200 75.64V40a16 16 0 0 0-16-16H72a16 16 0 0 0-16 16v36a16.07 16.07 0 0 0 6.4 12.8l52.27 39.2-52.27 39.2A16.07 16.07 0 0 0 56 180v36a16 16 0 0 0 16 16h112a16 16 0 0 0 16-16v-35.64a16.09 16.09 0 0 0-6.35-12.77L141.27 128l52.38-39.59A16.09 16.09 0 0 0 200 75.64M184 216H72v-36l56-42 56 42.35Zm0-140.36L128 118 72 76V40h112Z"/></svg>

<svg xmlns="http://www.w3.org/2000/svg" viewBox="0 0 256 256" fill="currentColor"><path d="M188.82,82,128,128,67.2,82.4A8,8,0,0,1,64,76V40a8,8,0,0,1,8-8H184a8,8,0,0,1,8,8V75.64A8,8,0,0,1,188.82,82ZM64,180v36a8,8,0,0,0,8,8H184a8,8,0,0,0,8-8V180.36a8,8,0,0,0-3.18-6.38L128,128,67.2,173.6A8,8,0,0,0,64,180Z" opacity="0.2"/><path d="M200,75.64V40a16,16,0,0,0-16-16H72A16,16,0,0,0,56,40V76a16.07,16.07,0,0,0,6.4,12.8L114.67,128,62.4,167.2A16.07,16.07,0,0,0,56,180v36a16,16,0,0,0,16,16H184a16,16,0,0,0,16-16V180.36a16.09,16.09,0,0,0-6.35-12.77L141.27,128l52.38-39.59A16.09,16.09,0,0,0,200,75.64ZM184,216H72V180l56-42,56,42.35Zm0-140.36L128,118,72,76V40H184Z"/></svg>
